X: 16037
T: Green Cottage, The
R: polka
M: 2/4
K: Bminor
f/e/|:dB B>B|FB B>B|cA Ac|e2 f>e|
dB B>B|FB B>B|cf f/e/d/c/|1 B2 Bf/e/:|2 B2 B2||
|:af a>b|af a>b|af de|f2 b>e|
dB B>B|FB B>B|cf f/e/d/c/|1 B2 B2:|2 B2 Bf/e/||

